X:1
T:Polska efter Janne Mårtensson, Kvällträsk, Åsele
C:Janne Mårtensson
R:Polska
S:Utlärd av David Eriksson
O: Lappland
Z:ABC-transkribering av Jonas Hallgren
M:3/4
L:1/8
K:D
|: A>F D>F E>C | D>F FA A2 | d>c d>e f>d | d>c (3ABA (GB) |
   A>F D>F E>C | D>F FA A2 | d>c d>e f>d | d<c A4 :| 
|: A>a ^g>f e>A | d>e f>d d>c | A>a ^g>e fg | (3a^ga b>(a a)>e |
   =f>a g>f e>A | d>e f>d d>c | A>G (3EFE (3DED | (3CEC D4 :|

